data/icons/hicolor/scalable/weather_icons/snowflake.svg

<svg xmlns="http://www.w3.org/2000/svg" viewBox="0 0 512 512">
    <defs>
        <linearGradient id="a" x1="192.02" y1="145.18" x2="319.98" y2="366.82" gradientUnits="userSpaceOnUse">
            <stop offset="0" stop-color="#86c3db"/>
            <stop offset="0.45" stop-color="#86c3db"/>
            <stop offset="1" stop-color="#5eafcf"/>
        </linearGradient>
    </defs>
    <path d="M372,295.22l-34.26-19.77a83.79,83.79,0,0,0-.08-38.86L372,216.78a24,24,0,1,0-24-41.56L313.67,195A81.44,81.44,0,0,0,280,175.58V136a24,24,0,0,0-48,0v39.62A84.08,84.08,0,0,0,198.28,195L164,175.22a24,24,0,1,0-24,41.56l34.26,19.77a83.79,83.79,0,0,0,.08,38.86L140,295.22a24,24,0,1,0,24,41.56L198.33,317A80.62,80.62,0,0,0,232,336.37V376a24,24,0,0,0,48,0V336.32A84,84,0,0,0,313.67,317L348,336.78a24,24,0,1,0,24-41.56Zm-134-8A36,36,0,1,1,287.2,274,36,36,0,0,1,238,287.18Z" stroke="#72b9d5" stroke-linecap="round" stroke-linejoin="round" stroke-width="4" fill="url(#a)"/>
</svg>

<svg xmlns="http://www.w3.org/2000/svg" viewBox="0 0 512 512"><defs><linearGradient id="a" x1="192" x2="320" y1="145.2" y2="366.8" gradientUnits="userSpaceOnUse"><stop offset="0" stop-color="#86c3db"/><stop offset=".5" stop-color="#86c3db"/><stop offset="1" stop-color="#5eafcf"/></linearGradient></defs><path fill="url(#a)" stroke="#72b9d5" stroke-linecap="round" stroke-linejoin="round" stroke-width="4" d="m372 295.2-34.3-19.7a83.8 83.8 0 000-39l34.3-19.7a24 24 0 10-24-41.6L313.7 195a81.4 81.4 0 00-33.7-19.4V136a24 24 0 00-48 0v39.6a84 84 0 00-33.7 19.4L164 175.2a24 24 0 10-24 41.6l34.3 19.7a83.8 83.8 0 000 39L140 295.1a24 24 0 1024 41.6l34.3-19.8a80.6 80.6 0 0033.7 19.4V376a24 24 0 0048 0v-39.7a84 84 0 0033.7-19.3l34.3 19.8a24 24 0 1024-41.6Zm-134-8a36 36 0 1149.2-13.2 36 36 0 01-49.2 13.2Z"/></svg>
